src/assets/template/spritesvg/whatsapp.svg

<svg width="40" height="40" viewBox="0 0 40 40" fill="none" xmlns="http://www.w3.org/2000/svg">
<rect x="1" y="1" width="38" height="38" stroke="#C4C4C4" stroke-width="2"/>
<g clip-path="url(#clip0)">
<path d="M30.7389 9.26109C27.991 6.51314 24.3382 5 20.4518 5C20.4516 5 20.4507 5 20.4504 5C18.5283 5.00023 16.6551 5.37239 14.8834 6.10641C13.1113 6.84044 11.5238 7.90176 10.1645 9.26109C7.41677 12.0088 5.90363 15.6622 5.90363 19.5482C5.90363 21.8656 6.46279 24.1686 7.52228 26.2206L5.07691 33.2065C4.90456 33.6993 5.02655 34.2348 5.39597 34.604C5.65438 34.8627 5.9945 35 6.34423 35C6.49414 35 6.64566 34.9748 6.79352 34.9231L13.7795 32.478C15.8314 33.5374 18.1344 34.0966 20.4518 34.0966C24.3378 34.0966 27.991 32.5832 30.7389 29.8355C33.4866 27.0878 35 23.4344 35 19.5484C35 15.6622 33.4869 12.0088 30.7389 9.26109ZM29.4947 28.5913C27.0793 31.0069 23.8676 32.337 20.4518 32.337C18.3621 32.337 16.2862 31.8201 14.4482 30.8419C14.115 30.6647 13.7211 30.6343 13.3675 30.7581L7.02057 32.9794L9.2421 26.6325C9.36592 26.2785 9.33525 25.8846 9.1581 25.5515C8.18009 23.7141 7.66304 21.6381 7.66304 19.5482C7.66304 16.1324 8.9933 12.9207 11.4087 10.5053C13.8239 8.09013 17.0351 6.75987 20.4507 6.75941H20.4518C23.8679 6.75941 27.0793 8.08968 29.4947 10.5053C31.9103 12.9207 33.2406 16.1321 33.2406 19.5482C33.2406 22.9642 31.9103 26.1759 29.4947 28.5913Z" fill="#C4C4C4"/>
<path d="M25.8584 20.8477C25.1891 20.1784 24.1001 20.1784 23.4308 20.8477L22.6989 21.5796C20.8813 20.5893 19.4105 19.1185 18.4199 17.3009L19.1519 16.569C19.8214 15.8997 19.8214 14.8107 19.1519 14.1414L17.1794 12.1689C16.5101 11.4997 15.4211 11.4997 14.7519 12.1689L13.174 13.7468C12.2701 14.6507 12.225 16.2046 13.0469 18.1224C13.7606 19.7875 15.0666 21.6176 16.7244 23.2754C18.3822 24.9332 20.2123 26.2392 21.8774 26.9529C22.7886 27.3433 23.6174 27.5381 24.3335 27.5381C25.1248 27.5381 25.7785 27.3003 26.253 26.8258L27.8309 25.2477V25.2479C28.1552 24.9236 28.3337 24.4926 28.3337 24.0342C28.3337 23.5755 28.1552 23.1445 27.8309 22.8204L25.8584 20.8477ZM25.0088 25.5816C24.7508 25.8396 23.9575 25.93 22.5707 25.3358C21.1063 24.7082 19.4719 23.5345 17.9686 22.0312C16.4653 20.5279 15.2918 18.8937 14.6642 17.4293C14.0698 16.0425 14.1602 15.249 14.4182 14.991L15.9659 13.4433L17.8775 15.3552L16.9613 16.2716C16.547 16.6859 16.447 17.3142 16.7127 17.8351C17.9173 20.1972 19.8026 22.0825 22.1647 23.2871C22.6858 23.5528 23.3141 23.453 23.7284 23.0385L24.6446 22.1223L26.5564 24.0342L25.0088 25.5816Z" fill="#C4C4C4"/>
</g>
<defs>
<clipPath id="clip0">
<rect x="5" y="5" width="30" height="30" fill="white"/>
</clipPath>
</defs>
</svg>

<svg width="40" height="40" fill="none" xmlns="http://www.w3.org/2000/svg"><path stroke="#C4C4C4" stroke-width="2" d="M1 1h38v38H1z"/><g clip-path="url(#clip0)" fill="#C4C4C4"><path d="M30.739 9.261A14.452 14.452 0 0020.452 5h-.002c-1.922 0-3.795.372-5.567 1.106a14.475 14.475 0 00-4.718 3.155 14.453 14.453 0 00-4.261 10.287c0 2.318.559 4.62 1.618 6.673l-2.445 6.985a1.337 1.337 0 00.319 1.398 1.336 1.336 0 001.398.32l6.986-2.446a14.592 14.592 0 006.672 1.619c3.886 0 7.539-1.514 10.287-4.262A14.453 14.453 0 0035 19.548c0-3.886-1.513-7.54-4.261-10.287zm-1.244 19.33a12.704 12.704 0 01-9.043 3.746c-2.09 0-4.166-.517-6.004-1.495a1.355 1.355 0 00-1.08-.084L7.02 32.98l2.221-6.346a1.356 1.356 0 00-.084-1.081 12.82 12.82 0 01-1.495-6.004c0-3.416 1.33-6.627 3.746-9.043A12.706 12.706 0 0120.45 6.76c3.417 0 6.628 1.33 9.044 3.746a12.704 12.704 0 013.746 9.043c0 3.416-1.33 6.628-3.746 9.043z"/><path d="M25.858 20.848a1.719 1.719 0 00-2.427 0l-.732.732a10.654 10.654 0 01-4.28-4.28l.733-.731c.67-.67.67-1.758 0-2.428l-1.973-1.972a1.719 1.719 0 00-2.427 0l-1.578 1.578c-.904.904-.949 2.458-.127 4.375.714 1.666 2.02 3.496 3.677 5.153 1.658 1.658 3.488 2.964 5.153 3.678.912.39 1.74.585 2.457.585.79 0 1.445-.238 1.919-.712l1.578-1.578c.324-.324.503-.755.503-1.214 0-.458-.179-.89-.503-1.214l-1.973-1.972zm-.85 4.734c-.257.258-1.05.348-2.437-.246-1.465-.628-3.1-1.801-4.602-3.305-1.504-1.503-2.677-3.137-3.305-4.602-.594-1.386-.504-2.18-.246-2.438l1.548-1.548 1.912 1.912-.917.917a1.343 1.343 0 00-.248 1.563 12.412 12.412 0 005.452 5.452c.52.266 1.15.166 1.563-.248l.917-.917 1.911 1.912-1.547 1.548z"/></g><defs><clipPath id="clip0"><path fill="#fff" d="M5 5h30v30H5z"/></clipPath></defs></svg>
